X:1
T: Roman Wall, The
L: 1/8
M: 6/8
R: jig
K: Gmajor
|:D|"G" G2G BAG|Bdg "G/B" dBG| "C"c2 e "G/B" dBG| "Am"FAA "D"A2d|
"G"G2G BAG|Bdg "G/B" dBG|"C"cde "G/B"dBG|"D"AGF "G"G2:|
|:d|"Em" g2g "D" fed|"C"efg "G/B"dBG|"Am"cde "G"dBG|"C"F2A "D"A2d|
"Em" g2g "D"fed|"C"efg "G/B"dBG|"Am"cde "G"dBG|"D"AGF "G"G2:|